**harmony	**harte	**kern	**silbe	**rhyme	**timestamp	**phrase
*M4/4	*M4/4	*ICvox	*	*	*	*
*	*	*VRlead	*	*	*	*
*	*	*Hstimme	*	*	*	*
*B:	*B:	*B:	*	*	*	*
*	*	*M4/4	*	*	*	*
*	*	*clefG2	*	*	*	*
1r;	1r	r;	.	.	0	.
=1	=1	=1	=1	=1	=1	=1
*>Letter>A	*>Letter>A	*>Letter>A	*>Letter>A	*>Letter>A	*>Letter>A	*>Letter>A
*>Label>Intro	*>Label>Intro	*>Label>Intro	*>Label>Intro	*>Label>Intro	*>Label>Intro	*>Label>Intro
2.N	N	1r	.	.	0.515	newline
4AM	A:5	.	.	.	1.898	.
=2	=2	=2	=2	=2	=2	=2
2.BM	B:maj	1r	.	.	2.358	.
4EM	E:5	.	.	.	3.741	.
=3	=3	=3	=3	=3	=3	=3
1BM	B:maj	1r	.	.	4.201	.
=4	=4	=4	=4	=4	=4	=4
1EM	E:maj	1r	.	.	6.045	.
=5	=5	=5	=5	=5	=5	=5
2.BM	B:maj	1r	.	.	7.888	.
4AM	A:5	.	.	.	9.27	.
=6	=6	=6	=6	=6	=6	=6
2.BM	B:maj	1r	.	.	9.731	newline
4EM	E:5	.	.	.	11.238	.
=7	=7	=7	=7	=7	=7	=7
1BM	B:maj	1r	.	.	11.74	.
=8	=8	=8	=8	=8	=8	=8
1EM	E:maj	1r	.	.	13.749	.
=9	=9	=9	=9	=9	=9	=9
2.BM	B:maj	1r	.	.	15.759	.
4AM	A:5	.	.	.	17.266	.
=10	=10	=10	=10	=10	=10	=10
2.BM	B:maj	1r	.	.	17.768	newline
4EM	E:5	.	.	.	19.281	.
=11	=11	=11	=11	=11	=11	=11
1BM	B:maj	1r	.	.	19.786	.
=12	=12	=12	=12	=12	=12	=12
1EM	E:maj	1r	.	.	21.803	.
=13	=13	=13	=13	=13	=13	=13
1BM	B:1	1r	.	.	23.821	.
=14	=14	=14	=14	=14	=14	=14
1BM	B:1	2r	.	.	25.838	.
.	.	8r	.	.	.	.
.	.	8B	Well	.	.	.
.	.	8B	I've	.	.	.
.	.	8B	been	.	.	.
=15	=15	=15	=15	=15	=15	=15
*>Letter>B	*>Letter>B	*>Letter>B	*>Letter>B	*>Letter>B	*>Letter>B	*>Letter>B
*>Label>Verse	*>Label>Verse	*>Label>Verse	*>Label>Verse	*>Label>Verse	*>Label>Verse	*>Label>Verse
1BM	B:maj	8d#	look-	.	27.856	newline
.	.	8f#	-in'	.	.	.
.	.	4f#	real	.	.	.
.	.	4f#	hard	A	.	.
.	.	8f#	and	.	.	.
.	.	8f#	I'm	.	.	.
=16	=16	=16	=16	=16	=16	=16
1BM	B:maj	8g#	try-	.	29.854	.
.	.	8f#	-na'	.	.	.
.	.	8f#	find	.	.	.
.	.	8f#	a	.	.	.
.	.	4d#	job	.	.	.
.	.	8d#	but	.	.	.
.	.	8f#	it	.	.	.
=17	=17	=17	=17	=17	=17	=17
1AM	A:maj	8g#	just	.	31.853	.
.	.	8b	keeps	B	.	.
.	.	8g#	get-	.	.	.
.	.	8f#	-tin'	.	.	.
.	.	8d	tough-	.	.	.
.	.	8d	-er	.	.	.
.	.	8c#	ev-	.	.	.
.	.	8B	-ery	b	.	.
=18	=18	=18	=18	=18	=18	=18
1AM	A:maj	4B	day	C	33.851	.
.	.	4r	.	.	.	.
.	.	8r	.	.	.	.
.	.	8A	But	.	.	.
.	.	8A	I	.	.	.
.	.	[8A	got	.	.	.
=19	=19	=19	=19	=19	=19	=19
1EM	E:maj	8A]	_	.	35.849	newline
.	.	8B	to	.	.	.
.	.	8B	do	.	.	.
.	.	8B	my	.	.	.
.	.	4B	part	A	.	.
.	.	8B	'cause	.	.	.
.	.	8B	I	.	.	.
=20	=20	=20	=20	=20	=20	=20
1EM	E:maj	8d	know	.	37.835	.
.	.	8d	in	.	.	.
.	.	8c#	my	.	.	.
.	.	8B	heart	A	.	.
.	.	8r	.	.	.	.
.	.	8B	I	.	.	.
.	.	8B	got	.	.	.
.	.	8B	to	.	.	.
=21	=21	=21	=21	=21	=21	=21
1BM	B:maj	8g#	please	B	39.821	.
.	.	8f#	me	.	.	.
.	.	8f#	sweet-	B	.	.
.	.	8d#	-um	.	.	.
.	.	4f#	ba-	C	.	.
.	.	8f#	-by	.	.	.
.	.	16d#	yeah	.	.	.
.	.	16c#	_	.	.	.
=22	=22	=22	=22	=22	=22	=22
1BM	B:maj	4B	_	.	41.807	.
.	.	4r	.	.	.	.
.	.	8r	.	.	.	.
.	.	8B	Well	.	.	.
.	.	8B	I	.	.	.
.	.	[8d#	ain't	.	.	.
=23	=23	=23	=23	=23	=23	=23
*>Letter>B	*>Letter>B	*>Letter>B	*>Letter>B	*>Letter>B	*>Letter>B	*>Letter>B
*>Label>Verse	*>Label>Verse	*>Label>Verse	*>Label>Verse	*>Label>Verse	*>Label>Verse	*>Label>Verse
1BM	B:maj	8d#]	_	.	43.793	newline
.	.	8f#	su-	.	.	.
.	.	8f#	-per-	.	.	.
.	.	4f#	-sti-	(D	.	.
.	.	8f#	-tious	d)	.	.
.	.	8f#	and	.	.	.
.	.	8f#	I	.	.	.
=24	=24	=24	=24	=24	=24	=24
1BM	B:maj	8g#	don't	.	45.767	.
.	.	8b	get	.	.	.
.	.	8g#	sus-	.	.	.
.	.	[8g#	-pic-	(D	.	.
.	.	8g#]	_	.	.	.
.	.	8f#	-ious	d)	.	.
.	.	8f#	but	.	.	.
.	.	8f#	my	.	.	.
=25	=25	=25	=25	=25	=25	=25
1AM	A:maj	8g#	wo-	.	47.741	.
.	.	8f#	-man	.	.	.
.	.	8f#	is	.	.	.
.	.	8f#	a	.	.	.
.	.	8d	friend	.	.	.
.	.	8c#	of	.	.	.
.	.	4c#	mine	E	.	.
=26	=26	=26	=26	=26	=26	=26
1AM	A:maj	4B	_	.	49.714	.
.	.	4r	.	.	.	.
.	.	8r	.	.	.	.
.	.	8A	And	.	.	.
.	.	8A	I	.	.	.
.	.	[8A	know	.	.	.
=27	=27	=27	=27	=27	=27	=27
1EM	E:maj	8A]	_	.	51.688	newline
.	.	8B	that	.	.	.
.	.	8B	it's	.	.	.
.	.	4B	true	F	.	.
.	.	8B	that	.	.	.
.	.	8B	all	.	.	.
.	.	8B	the	.	.	.
=28	=28	=28	=28	=28	=28	=28
1EM	E:maj	8d	things	.	53.653	.
.	.	8d	that	.	.	.
.	.	8c#	I	.	.	.
.	.	8B	do	F	.	.
.	.	8r	.	.	.	.
.	.	8B	will	.	.	.
.	.	8B	come	.	.	.
.	.	[8g#	back	.	.	.
=29	=29	=29	=29	=29	=29	=29
1BM	B:maj	8g#]	_	.	55.617	.
.	.	8f#	to	.	.	.
.	.	8f#	me	.	.	.
.	.	8d#	in	.	.	.
.	.	4f#	my	.	.	.
.	.	8f#	sweet-	.	.	.
.	.	8d#	-um	.	.	.
=30	=30	=30	=30	=30	=30	=30
1BM	B:maj	4f#	time	E	57.582	.
.	.	16d#	_	.	.	.
.	.	16c#	_	.	.	.
.	.	8B	_	.	.	.
.	.	8r	.	.	.	.
.	.	8A	So	.	.	.
.	.	8A	keep	.	.	.
.	.	8A	on	.	.	.
=31	=31	=31	=31	=31	=31	=31
*>Letter>B	*>Letter>B	*>Letter>B	*>Letter>B	*>Letter>B	*>Letter>B	*>Letter>B
*>Label>Chorus	*>Label>Chorus	*>Label>Chorus	*>Label>Chorus	*>Label>Chorus	*>Label>Chorus	*>Label>Chorus
1BM	B:maj	8A	rock-	.	59.546	newline
.	.	8B	-in'	.	.	.
.	.	8B	me	.	.	.
.	.	4.B	ba-	.	.	.
.	.	8B	-by	.	.	.
.	.	8r	.	.	.	.
=32	=32	=32	=32	=32	=32	=32
2BM	B:maj	2r	.	.	61.493	.
2BMm	B:7	8r	.	.	62.467	.
.	.	8A	Keep	.	.	.
.	.	8A	on	.	.	.
.	.	8A	a	.	.	.
=33	=33	=33	=33	=33	=33	=33
1AM	A:maj	8A	rock-	.	63.44	.
.	.	8B	-in'	.	.	.
.	.	8B	me	.	.	.
.	.	4.B	ba-	.	.	.
.	.	8B	-by	.	.	.
.	.	8r	.	.	.	.
=34	=34	=34	=34	=34	=34	=34
2AM	A:maj	2r	.	.	65.387	.
2AMm	A:7	8r	.	.	66.36	.
.	.	8A	Keep	.	.	.
.	.	8A	on	.	.	.
.	.	8A	a	.	.	.
=35	=35	=35	=35	=35	=35	=35
1EM	E:maj	8A	rock-	.	67.334	newline
.	.	8B	-in'	.	.	.
.	.	8B	me	.	.	.
.	.	4.B	ba-	.	.	.
.	.	8B	-by	.	.	.
.	.	8r	.	.	.	.
=36	=36	=36	=36	=36	=36	=36
2EM	E:maj	2r	.	.	69.281	.
2EMm	E:7	8r	.	.	70.255	.
.	.	8A	Keep	.	.	.
.	.	8A	on	.	.	.
.	.	8A	a	.	.	.
=37	=37	=37	=37	=37	=37	=37
1BM	B:maj	8A	rock-	.	71.229	.
.	.	8B	-in'	.	.	.
.	.	8B	me	.	.	.
.	.	4.B	ba-	.	.	.
.	.	8B	-by	.	.	.
.	.	8r	.	.	.	.
=38	=38	=38	=38	=38	=38	=38
2BM	B:maj	2r	.	.	73.177	.
2BMm	B:7	8r	.	.	74.151	.
.	.	8B	I	.	.	.
.	.	8B	went	.	.	.
.	.	8B	from	.	.	.
=39	=39	=39	=39	=39	=39	=39
*>Letter>B	*>Letter>B	*>Letter>B	*>Letter>B	*>Letter>B	*>Letter>B	*>Letter>B
*>Label>Verse	*>Label>Verse	*>Label>Verse	*>Label>Verse	*>Label>Verse	*>Label>Verse	*>Label>Verse
1BM	B:maj	8d#	Phoe-	.	75.125	newline
.	.	8f#	-nix	.	.	.
.	.	8f#	Ar-	.	.	.
.	.	8f#	-i-	.	.	.
.	.	8f#	-zo-	(G	.	.
.	.	8f#	-na	g)	.	.
.	.	8f#	all	.	.	.
.	.	8f#	the	.	.	.
=40	=40	=40	=40	=40	=40	=40
1BM	B:maj	8g#	way	.	77.077	.
.	.	8f#	to	.	.	.
.	.	8f#	Ta-	.	.	.
.	.	8f#	-co-	(G	.	.
.	.	8d#	_	.	.	.
.	.	8d#	-ma	g)	.	.
.	.	8f#	Phil-	.	.	.
.	.	8f#	-a-	.	.	.
=41	=41	=41	=41	=41	=41	=41
1AM	A:maj	8g#	-del-	.	79.03	.
.	.	8b	-phi-	.	.	.
.	.	8g#	-a	g	.	.
.	.	8f#	At-	.	.	.
.	.	8d	-lan-	.	.	.
.	.	8d	-ta	g	.	.
.	.	8c#	L.	.	.	.
.	.	[8B	A.	C	.	.
=42	=42	=42	=42	=42	=42	=42
1AM	A:maj	4B]	_	.	80.983	.
.	.	4r	.	.	.	.
.	.	4r	.	.	.	.
.	.	[4A	North-	H	.	.
=43	=43	=43	=43	=43	=43	=43
1EM	E:maj	8A]	_	.	82.935	newline
.	.	8B	-ern	.	.	.
.	.	8B	Ca-	.	.	.
.	.	8B	-li-	.	.	.
.	.	8B	-forn-	H	.	.
.	.	8B	-ia	.	.	.
.	.	8B	where	.	.	.
.	.	8B	the	.	.	.
=44	=44	=44	=44	=44	=44	=44
1EM	E:maj	4d	girls	.	84.87	.
.	.	8c#	are	.	.	.
.	.	8B	warm	H	.	.
.	.	16c#	_	.	.	.
.	.	16B	_	.	.	.
.	.	8B	so	.	.	.
.	.	8B	I	.	.	.
.	.	8B	can	.	.	.
=45	=45	=45	=45	=45	=45	=45
1BM	B:maj	8g#	see	B	86.806	.
.	.	8f#	my	.	.	.
.	.	8f#	sweet-	B	.	.
.	.	8d#	-um	.	.	.
.	.	4f#	ba-	.	.	.
.	.	8f#	-by	.	.	.
.	.	16d#	yeah	.	.	.
.	.	16c#	_	.	.	.
=46	=46	=46	=46	=46	=46	=46
1BM	B:maj	4B	_	.	88.741	.
.	.	4r	.	.	.	.
.	.	8r	.	.	.	.
.	.	8A	Keep	.	.	.
.	.	8A	on	.	.	.
.	.	8A	a	.	.	.
=47	=47	=47	=47	=47	=47	=47
*>Letter>B	*>Letter>B	*>Letter>B	*>Letter>B	*>Letter>B	*>Letter>B	*>Letter>B
*>Label>Chorus	*>Label>Chorus	*>Label>Chorus	*>Label>Chorus	*>Label>Chorus	*>Label>Chorus	*>Label>Chorus
1BM	B:maj	8A	rock-	.	90.676	newline
.	.	8B	-in'	.	.	.
.	.	8B	me	.	.	.
.	.	4.B	ba-	.	.	.
.	.	8B	-by	.	.	.
.	.	8r	.	.	.	.
=48	=48	=48	=48	=48	=48	=48
2BM	B:maj	2r	.	.	92.641	.
2BMm	B:7	8r	.	.	93.623	.
.	.	8A	Keep	.	.	.
.	.	8A	on	.	.	.
.	.	8A	a	.	.	.
=49	=49	=49	=49	=49	=49	=49
1AM	A:maj	8A	rock-	.	94.606	.
.	.	8B	-in'	.	.	.
.	.	8B	me	.	.	.
.	.	4.B	ba-	.	.	.
.	.	8B	-by	.	.	.
.	.	8r	.	.	.	.
=50	=50	=50	=50	=50	=50	=50
2AM	A:maj	2r	.	.	96.571	.
2AMm	A:7	8r	.	.	97.553	.
.	.	8A	Keep	.	.	.
.	.	8A	on	.	.	.
.	.	8A	a	.	.	.
=51	=51	=51	=51	=51	=51	=51
1EM	E:maj	8A	rock-	.	98.535	newline
.	.	8B	-in'	.	.	.
.	.	8B	me	.	.	.
.	.	4.B	ba-	.	.	.
.	.	8B	-by	.	.	.
.	.	8r	.	.	.	.
=52	=52	=52	=52	=52	=52	=52
2EM	E:maj	2r	.	.	100.482	.
2EMm	E:7	8r	.	.	101.455	.
.	.	8A	Keep	.	.	.
.	.	8A	on	.	.	.
.	.	8A	a	.	.	.
=53	=53	=53	=53	=53	=53	=53
1BM	B:maj	8A	rock-	.	102.429	.
.	.	8B	-in'	.	.	.
.	.	8B	me	.	.	.
.	.	4.B	ba-	.	.	.
.	.	8B	-by	.	.	.
.	.	8r	.	.	.	.
=54	=54	=54	=54	=54	=54	=54
2BM	B:maj	8d#	Ba-	.	104.375	.
.	.	8d	-by	.	.	.
.	.	8d#	Ba-	.	.	.
.	.	8d	-by	.	.	.
2BMm	B:7	8d#	Ba-	.	105.349	.
.	.	8d	-by	.	.	.
.	.	8A	keep	.	.	.
.	.	8A	on	.	.	.
=55	=55	=55	=55	=55	=55	=55
*>Letter>A	*>Letter>A	*>Letter>A	*>Letter>A	*>Letter>A	*>Letter>A	*>Letter>A
*>Label>Interlude	*>Label>Interlude	*>Label>Interlude	*>Label>Interlude	*>Label>Interlude	*>Label>Interlude	*>Label>Interlude
2.BM	B:maj	8B	rock-	.	106.322	newline
.	.	8B	-in'	.	.	.
.	.	4r	.	.	.	.
.	.	2r	.	.	.	.
4EM	E:5	.	.	.	107.795	.
=56	=56	=56	=56	=56	=56	=56
1BM	B:maj	4r	.	.	108.286	.
.	.	8f#	Rock-	.	.	.
.	.	16e	-in'	.	.	.
.	.	8d#	my	.	.	.
.	.	8.f#	ba-	.	.	.
.	.	4f#	-by	.	.	.
=57	=57	=57	=57	=57	=57	=57
1EM	E:maj	1r	.	.	110.25	.
=58	=58	=58	=58	=58	=58	=58
2.BM	B:maj	2r	.	.	112.214	.
.	.	8r	.	.	.	.
.	.	8f#	Keep	.	.	.
4AM	A:5	8e	on	.	113.687	.
.	.	8d	a	.	.	.
=59	=59	=59	=59	=59	=59	=59
2.BM	B:maj	8e	rock-	.	114.178	newline
.	.	4f#	-in'	.	.	.
.	.	8r	.	.	.	.
.	.	8r	.	.	.	.
.	.	8f#	Rock-	.	.	.
4EM	E:5	8e	-in'	.	115.691	.
.	.	8d	me	.	.	.
=60	=60	=60	=60	=60	=60	=60
1BM	B:maj	4e	ba-	.	116.195	.
.	.	4f#	-by	.	.	.
.	.	2r	.	.	.	.
=61	=61	=61	=61	=61	=61	=61
1EM	E:maj	1r	.	.	118.212	.
=62	=62	=62	=62	=62	=62	=62
1BM	B:1	4.dd	Hoo	.	120.229	.
.	.	4e	hoo	.	.	.
.	.	4e	hoo	.	.	.
.	.	[8d	hoo	.	.	.
=63	=63	=63	=63	=63	=63	=63
1BM	B:1	4.d]	_	.	122.246	.
.	.	8E	yeah	.	.	.
.	.	8D	_	.	.	.
.	.	8r	.	.	.	.
.	.	4r	.	.	.	.
=64	=64	=64	=64	=64	=64	=64
*>Letter>B	*>Letter>B	*>Letter>B	*>Letter>B	*>Letter>B	*>Letter>B	*>Letter>B
*>Label>Verse	*>Label>Verse	*>Label>Verse	*>Label>Verse	*>Label>Verse	*>Label>Verse	*>Label>Verse
1BM	B:maj	8d#	Don't	.	124.263	newline
.	.	8f#	get	.	.	.
.	.	8f#	sus-	.	.	.
.	.	4f#	-pi-	.	.	.
.	.	8f#	-cious	.	.	.
.	.	8f#	Now	.	.	.
.	.	[8g#	don't	.	.	.
=65	=65	=65	=65	=65	=65	=65
1BM	B:maj	8g#]	_	.	126.204	.
.	.	8f#	be	.	.	.
.	.	8f#	sus-	.	.	.
.	.	[8d#	-pic-	.	.	.
.	.	8d#]	_	.	.	.
.	.	8e	-ious	.	.	.
.	.	8f#	Babe	.	.	.
.	.	8f#	you	.	.	.
=66	=66	=66	=66	=66	=66	=66
1AM	A:maj	8g#	know	.	128.145	.
.	.	8f#	you	.	.	.
.	.	8f#	are	.	.	.
.	.	8f#	a	.	.	.
.	.	8d	friend	.	.	.
.	.	8c#	of	.	.	.
.	.	8c#	mine	E	.	.
.	.	[8d	_	.	.	.
=67	=67	=67	=67	=67	=67	=67
1AM	A:maj	8d]	_	.	130.086	.
.	.	8r	.	.	.	.
.	.	4r	.	.	.	.
.	.	8r	.	.	.	.
.	.	8A	And	.	.	.
.	.	8A	you	.	.	.
.	.	[8A	know	.	.	.
=68	=68	=68	=68	=68	=68	=68
1EM	E:maj	8A]	_	.	132.027	newline
.	.	8B	that	.	.	.
.	.	8B	it's	.	.	.
.	.	4B	true	.	.	.
.	.	8B	that	.	.	.
.	.	8B	all	.	.	.
.	.	8B	the	.	.	.
=69	=69	=69	=69	=69	=69	=69
1EM	E:maj	8d	things	.	134.021	.
.	.	8d	that	.	.	.
.	.	8c#	I	.	.	.
.	.	4B	do	.	.	.
.	.	8B	are	.	.	.
.	.	8B	gon-	.	.	.
.	.	8B	-na	.	.	.
=70	=70	=70	=70	=70	=70	=70
1BM	B:maj	8g#	come	.	136.015	.
.	.	8f#	back	.	.	.
.	.	8f#	to	.	.	.
.	.	8d#	you	.	.	.
.	.	8f#	in	.	.	.
.	.	8f#	your	.	.	.
.	.	8f#	sweet-	.	.	.
.	.	8c#	-time	E	.	.
=71	=71	=71	=71	=71	=71	=71
1BM	B:maj	4B	_	.	138.009	.
.	.	4r	.	.	.	.
.	.	8r	.	.	.	.
.	.	8B	I	.	.	.
.	.	8B	went	.	.	.
.	.	8B	from	.	.	.
=72	=72	=72	=72	=72	=72	=72
*>Letter>B	*>Letter>B	*>Letter>B	*>Letter>B	*>Letter>B	*>Letter>B	*>Letter>B
*>Label>Verse	*>Label>Verse	*>Label>Verse	*>Label>Verse	*>Label>Verse	*>Label>Verse	*>Label>Verse
1BM	B:maj	8d#	Phoe-	.	140.002	newline
.	.	8f#	-nix	.	.	.
.	.	8f#	Ar-	.	.	.
.	.	8f#	-i-	.	.	.
.	.	8f#	-zo-	(G	.	.
.	.	8f#	-na	g)	.	.
.	.	8f#	all	.	.	.
.	.	8f#	the	.	.	.
=73	=73	=73	=73	=73	=73	=73
1BM	B:maj	8g#	way	.	141.956	.
.	.	8f#	to	.	.	.
.	.	8f#	Ta-	.	.	.
.	.	4f#	-co-	(G	.	.
.	.	8f#	-ma	g)	.	.
.	.	8g#	Phil-	.	.	.
.	.	8g#	-a-	g	.	.
=74	=74	=74	=74	=74	=74	=74
1AM	A:maj	8g#	-del-	.	143.909	.
.	.	8b	-phi-	.	.	.
.	.	8g#	-a	g	.	.
.	.	8f#	At-	.	.	.
.	.	8d	-lan-	.	.	.
.	.	8d	-ta	g	.	.
.	.	8c#	L.	.	.	.
.	.	8B	A.	C	.	.
=75	=75	=75	=75	=75	=75	=75
1AM	A:maj	4d	_	.	145.862	.
.	.	4r	.	.	.	.
.	.	4r	.	.	.	.
.	.	[4A	North-	H	.	.
=76	=76	=76	=76	=76	=76	=76
1EM	E:maj	8A]	_	.	147.815	newline
.	.	8B	-ern	.	.	.
.	.	8B	Ca-	.	.	.
.	.	8B	-li-	.	.	.
.	.	8B	-forn-	H	.	.
.	.	8B	-ia	.	.	.
.	.	8B	where	.	.	.
.	.	8B	the	.	.	.
=77	=77	=77	=77	=77	=77	=77
1EM	E:maj	4d	girls	.	149.786	.
.	.	8c#	are	.	.	.
.	.	4B	warm	H	.	.
.	.	8B	so	.	.	.
.	.	8B	I	.	.	.
.	.	8B	can	.	.	.
=78	=78	=78	=78	=78	=78	=78
1BM	B:maj	8g#	hear	B	151.757	.
.	.	8f#	my	.	.	.
.	.	8f#	sweet-	B	.	.
.	.	8d#	-um	.	.	.
.	.	4f#	ba-	C	.	.
.	.	8f#	-by	.	.	.
.	.	16d#	say	C	.	.
.	.	16c#	_	.	.	.
=79	=79	=79	=79	=79	=79	=79
1BM	B:maj	4B	_	.	153.727	.
.	.	4r	.	.	.	.
.	.	8r	.	.	.	.
.	.	8A	Keep	.	.	.
.	.	8A	on	.	.	.
.	.	8A	a	.	.	.
=80	=80	=80	=80	=80	=80	=80
*>Letter>B	*>Letter>B	*>Letter>B	*>Letter>B	*>Letter>B	*>Letter>B	*>Letter>B
*>Label>Chorus	*>Label>Chorus	*>Label>Chorus	*>Label>Chorus	*>Label>Chorus	*>Label>Chorus	*>Label>Chorus
1BM	B:maj	8A	rock-	.	155.698	newline
.	.	8B	-in'	.	.	.
.	.	8B	me	.	.	.
.	.	4.B	ba-	.	.	.
.	.	8B	-by	.	.	.
.	.	8r	.	.	.	.
=81	=81	=81	=81	=81	=81	=81
1BM	B:maj	2r	.	.	157.663	.
.	.	8r	.	.	.	.
.	.	8A	Keep	.	.	.
.	.	8A	on	.	.	.
.	.	8A	a	.	.	.
=82	=82	=82	=82	=82	=82	=82
1AM	A:maj	8A	rock-	.	159.628	.
.	.	8B	-in'	.	.	.
.	.	8B	me	.	.	.
.	.	4.B	ba-	.	.	.
.	.	8B	-by	.	.	.
.	.	8r	.	.	.	.
=83	=83	=83	=83	=83	=83	=83
1AM	A:maj	2r	.	.	161.593	.
.	.	8r	.	.	.	.
.	.	8A	Keep	.	.	.
.	.	8A	on	.	.	.
.	.	8A	a	.	.	.
=84	=84	=84	=84	=84	=84	=84
1EM	E:maj	8A	rock-	.	163.558	newline
.	.	8B	-in'	.	.	.
.	.	8B	me	.	.	.
.	.	2B	ba-	.	.	.
.	.	8A	-by	.	.	.
=85	=85	=85	=85	=85	=85	=85
1EM	E:maj	2r	.	.	165.513	.
.	.	8r	.	.	.	.
.	.	8A	Keep	.	.	.
.	.	8A	on	.	.	.
.	.	8A	a	.	.	.
=86	=86	=86	=86	=86	=86	=86
1BM	B:maj	8A	rock-	.	167.468	.
.	.	8B	-in'	.	.	.
.	.	8B	me	.	.	.
.	.	8A	rock-	.	.	.
.	.	8B	-in'	.	.	.
.	.	8B	me	.	.	.
.	.	8A	rock-	.	.	.
.	.	8B	-in'	.	.	.
=87	=87	=87	=87	=87	=87	=87
1BM	B:maj	8d#	Ba-	.	169.423	.
.	.	8d	-by	.	.	.
.	.	8d#	Ba-	.	.	.
.	.	8d	-by	.	.	.
.	.	8d#	Ba-	.	.	.
.	.	8d	-by	.	.	.
.	.	8A	Keep	.	.	.
.	.	8A	on	.	.	.
=88	=88	=88	=88	=88	=88	=88
*>Letter>B	*>Letter>B	*>Letter>B	*>Letter>B	*>Letter>B	*>Letter>B	*>Letter>B
*>Label>Chorus	*>Label>Chorus	*>Label>Chorus	*>Label>Chorus	*>Label>Chorus	*>Label>Chorus	*>Label>Chorus
1BM	B:maj	8A	rock-	.	171.379	newline
.	.	8B	-in'	.	.	.
.	.	8B	me	.	.	.
.	.	4.B	ba-	.	.	.
.	.	8B	-by	.	.	.
.	.	8r	.	.	.	.
=89	=89	=89	=89	=89	=89	=89
1BM	B:maj	2r	.	.	173.337	.
.	.	8r	.	.	.	.
.	.	8A	Keep	.	.	.
.	.	8A	on	.	.	.
.	.	8A	a	.	.	.
=90	=90	=90	=90	=90	=90	=90
1AM	A:maj	8A	rock-	.	175.295	.
.	.	8B	-in'	.	.	.
.	.	8B	me	.	.	.
.	.	4.B	ba-	.	.	.
.	.	8B	-by	.	.	.
.	.	8r	.	.	.	.
=91	=91	=91	=91	=91	=91	=91
1AM	A:maj	2r	.	.	177.253	.
.	.	8r	.	.	.	.
.	.	8A	Keep	.	.	.
.	.	8A	on	.	.	.
.	.	8A	a	.	.	.
=92	=92	=92	=92	=92	=92	=92
1EM	E:maj	8A	rock-	.	179.211	newline
.	.	8B	-in'	.	.	.
.	.	8B	me	.	.	.
.	.	2B	ba-	.	.	.
.	.	8A	-by	.	.	.
=93	=93	=93	=93	=93	=93	=93
1EM	E:maj	2r	.	.	180.883	.
.	.	8r	.	.	.	.
.	.	8A	Keep	.	.	.
.	.	8A	on	.	.	.
.	.	8A	a	.	.	.
=94	=94	=94	=94	=94	=94	=94
1BM	B:maj	8A	rock-	.	182.556	.
.	.	8B	-in'	.	.	.
.	.	8B	me	.	.	.
.	.	8A	rock-	.	.	.
.	.	8B	-in'	.	.	.
.	.	8B	me	.	.	.
.	.	8A	rock-	.	.	.
.	.	8B	-in'	.	.	.
=95	=95	=95	=95	=95	=95	=95
1BM	B:maj	8d#	Ba-	.	184.229	.
.	.	8d	-by	.	.	.
.	.	8d#	Ba-	.	.	.
.	.	8d	-by	.	.	.
.	.	8d#	Ba-	.	.	.
.	.	8d	-by	.	.	.
.	.	4r	.	.	.	.
1r;	1r	r;	.	.	185.901	.
1r;	1r	r;	.	.	188.944	.
*-	*-	*-	*-	*-	*-	*-
!!!BillboardChartDate: 1976/09/25
!!!BillboardPeak: 1
!!!BillboardWeeksOnChart: 18
!!!COC: Steve Miller Band
!!!ENC: Nathaniel Condit-Schultz
!!!EST: Awating manual error checking and editing.
!!!OTL: Rock'n Me
!!!RDF**chordsym: original McGill chord annotation + (implied pitch class set, with bass pitch in first position)
!!!RDF**harmony: **recip + pitch class of root + harmonic quality
!!!RDF**leadinstrument: original McGill primary instrumentation annotation
!!!RDF**phrase: newline = linebreak in original McGill transcription
!!!RDF**timestamp: McGill audio timestamp in seconds
!!!RDT: 2017/01/12/
!!!SampleActualRank: 21
!!!SampleID#: 1249
!!!SampleTargetRank: 20
!!!MBID: 878c1503-d59f-4b0a-8bc3-3744f1cd1411